X:12499
%15679
T:Soldier's Joy
C:Trad
S:Begged, Borrowed or Stolen
K:Cmaj
M:4/4
||EF 
%Error : Bar 1 is 1/4 not 4/4
| GECE GECE | G2c2 c2BA | GECE GECE | F2D2 D2EF | 
GECE GECE | G2c2 c2f2 | egec dfdB | [1 c2c2 c2:| [2c2c2 c4
%Error : Bar 10 is 7/4 not 4/4
|
||e2e2 egfe | d2d2 dfed | e2e2 egfe | dcBA G2cd |
e2e2 egfe | d2d2dfed | egec dfdB c2c2 c4
%Warning : No repeat expected, found :|
:| 


